public/editor-src/editor/icons/fa/mars-stroke-right.svg

<svg xmlns="http://www.w3.org/2000/svg" viewBox="0 0 640 512"><!--! Font Awesome Free 6.4.0 by @fontawesome - https://fontawesome.com License - https://fontawesome.com/license/free (Icons: CC BY 4.0, Fonts: SIL OFL 1.1, Code: MIT License) Copyright 2023 Fonticons, Inc.--><path d="M208 368a112 112 0 1 0 0-224 112 112 0 1 0 0 224zm174.4-88c-11.7 85.8-85.3 152-174.4 152-97.2 0-176-78.8-176-176S110.8 80 208 80c89.1 0 162.7 66.2 174.4 152H416v-56c0-13.3 10.7-24 24-24s24 10.7 24 24v56h32v-56c0-9.7 5.8-18.5 14.8-22.2s19.3-1.7 26.2 5.2l80 80c9.4 9.4 9.4 24.6 0 33.9l-80 80c-6.9 6.9-17.2 8.9-26.2 5.2S496 345.6 496 335.9V280h-32v56c0 13.3-10.7 24-24 24s-24-10.7-24-24v-56h-33.6z"/></svg>

<svg xmlns="http://www.w3.org/2000/svg" viewBox="0 0 640 512"><!--! Font Awesome Free 6.4.0 by @fontawesome - https://fontawesome.com License - https://fontawesome.com/license/free (Icons: CC BY 4.0, Fonts: SIL OFL 1.1, Code: MIT License) Copyright 2023 Fonticons, Inc. --><path d="M208 368a112 112 0 1 0 0-224 112 112 0 1 0 0 224zm174.4-88C370.7 365.8 297.1 432 208 432c-97.2 0-176-78.8-176-176s78.8-176 176-176c89.1 0 162.7 66.2 174.4 152H416V176c0-13.3 10.7-24 24-24s24 10.7 24 24v56h32V176c0-9.7 5.8-18.5 14.8-22.2s19.3-1.7 26.2 5.2l80 80c9.4 9.4 9.4 24.6 0 33.9l-80 80c-6.9 6.9-17.2 8.9-26.2 5.2s-14.8-12.5-14.8-22.2V280H464v56c0 13.3-10.7 24-24 24s-24-10.7-24-24V280H382.4z"/></svg>
